icons/mini/cake.svg

<svg width="20" height="20" viewBox="0 0 20 20" fill="none" xmlns="http://www.w3.org/2000/svg">
<path d="M6.74999 0.979492L5.86612 1.86339C5.37796 2.35154 5.37796 3.143 5.86612 3.63115C6.35427 4.11931 7.14573 4.11931 7.63388 3.63115C8.12204 3.143 8.12204 2.35154 7.63388 1.86339L6.74999 0.979492Z" fill="#0F172A"/>
<path d="M13.25 0.979492L12.3661 1.86339C11.878 2.35154 11.878 3.143 12.3661 3.63115C12.8543 4.11931 13.6457 4.11931 14.1339 3.63115C14.622 3.143 14.622 2.35154 14.1339 1.86339L13.25 0.979492Z" fill="#0F172A"/>
<path d="M9.99999 0.979492L10.8839 1.86339C11.372 2.35154 11.372 3.143 10.8839 3.63115C10.3957 4.11931 9.60427 4.11931 9.11612 3.63115C8.62796 3.143 8.62796 2.35154 9.11612 1.86339L9.99999 0.979492Z" fill="#0F172A"/>
<path d="M7.5 5.75015C7.5 5.33594 7.16421 5.00015 6.75 5.00015C6.33579 5.00015 6 5.33594 6 5.75015V6.21394C4.82122 6.51862 4 7.60448 4 8.83585V8.93037C4.10036 8.90975 4.20229 8.89245 4.30573 8.87859C6.16935 8.62892 8.07023 8.50015 10 8.50015C11.9298 8.50015 13.8306 8.62892 15.6943 8.87859C15.7977 8.89245 15.8996 8.90975 16 8.93037V8.83585C16 7.60447 15.1788 6.51862 14 6.21394V5.75015C14 5.33594 13.6642 5.00015 13.25 5.00015C12.8358 5.00015 12.5 5.33594 12.5 5.75015V6.06844C11.9195 6.03665 11.3361 6.01586 10.75 6.00628V5.75015C10.75 5.33594 10.4142 5.00015 10 5.00015C9.58579 5.00015 9.25 5.33594 9.25 5.75015V6.00628C8.66391 6.01586 8.08051 6.03665 7.5 6.06844V5.75015Z" fill="#0F172A"/>
<path d="M4.50491 10.3653C6.30269 10.1245 8.13702 10.0002 10 10.0002C11.863 10.0002 13.6973 10.1245 15.4951 10.3653C16.9666 10.5625 18 11.838 18 13.279V13.9723C17.4297 13.9723 16.8594 13.8413 16.3354 13.5793C14.8652 12.8442 13.1348 12.8442 11.6646 13.5793C10.6167 14.1033 9.38329 14.1033 8.33541 13.5793C6.86524 12.8442 5.13476 12.8442 3.66459 13.5793C3.14065 13.8413 2.57032 13.9723 2 13.9723V13.279C2 11.838 3.03337 10.5625 4.50491 10.3653Z" fill="#0F172A"/>
<path d="M15.6646 14.921C16.3997 15.2885 17.1998 15.4723 18 15.4723V16.5002C18 17.3286 17.3284 18.0002 16.5 18.0002H3.5C2.67157 18.0002 2 17.3286 2 16.5002V15.4723C2.80016 15.4723 3.60032 15.2885 4.33541 14.921C5.38329 14.397 6.61671 14.397 7.66459 14.921C9.13476 15.6561 10.8652 15.6561 12.3354 14.921C13.3833 14.397 14.6167 14.397 15.6646 14.921Z" fill="#0F172A"/>
</svg>

<svg xmlns="http://www.w3.org/2000/svg" viewBox="0 0 20 20" fill="currentColor" aria-hidden="true">
  <path d="M6.75.98l-.884.883a1.25 1.25 0 101.768 0L6.75.98zM13.25.98l-.884.883a1.25 1.25 0 101.768 0L13.25.98zM10 .98l.884.883a1.25 1.25 0 11-1.768 0L10 .98zM7.5 5.75a.75.75 0 00-1.5 0v.464c-1.179.305-2 1.39-2 2.622v.094c.1-.02.202-.038.306-.051A42.869 42.869 0 0110 8.5c1.93 0 3.83.129 5.694.379.104.013.206.03.306.051v-.094c0-1.232-.821-2.317-2-2.622V5.75a.75.75 0 00-1.5 0v.318a45.645 45.645 0 00-1.75-.062V5.75a.75.75 0 00-1.5 0v.256c-.586.01-1.17.03-1.75.062V5.75zM4.505 10.365A41.377 41.377 0 0110 10c1.863 0 3.697.124 5.495.365C16.967 10.562 18 11.838 18 13.28v.693a3.72 3.72 0 01-1.665-.393 5.222 5.222 0 00-4.67 0 3.722 3.722 0 01-3.33 0 5.222 5.222 0 00-4.67 0A3.72 3.72 0 012 13.972v-.693c0-1.441 1.033-2.716 2.505-2.914zM15.665 14.921a5.22 5.22 0 002.335.551V16.5a1.5 1.5 0 01-1.5 1.5h-13A1.5 1.5 0 012 16.5v-1.028c.8 0 1.6-.183 2.335-.551a3.722 3.722 0 013.33 0c1.47.735 3.2.735 4.67 0a3.722 3.722 0 013.33 0z"/>
</svg>
